X:1
T:Minuet in F Major
T:K2
T:Wolfgang Amadeus Mozart (1756-1791)
T:Left-hand notes may be played detached.
T:Left-hand notes may be played detached.
T:Left-hand notes may be played detached.
Z:Left-hand notes may be played detached.
%%score { 1 | 2 }
L:1/8
M:3/4
K:F
V:1 treble nm="Piano"
V:2 bass 
V:1
!mf!"^3""^_" (f"^5""^!"a"^1" c2)"^2""^!!" c2 |"^3""^_" (d"^5""^!"f"^1" B2)"^3""^!!" B2 | %2
"^2""^_" (A"^1""^!"c"^4" F2)"^2""^!!!" E2 |"^3""^!!" (E4"^4""^!!." F2) | %4
"^1"!<(! (C"^2"E"^3" G2)"^4" G2!<)! |"^1" (C"^2"F"^4" A2)"^5" A2 | %6
"^1" z4/3"^3" (3(C"^5" EG B2) A2"^2""^3" |"^4" (A4"^3" G2) :|"^2" (c"^5"_e"^1" A2)"^2" A2 | %9
"^3" (B"^5"d"^1" G2)"^2" G2 |"^3" (A"^5"c"^2" ^F2)"^3" F2 |"^2" (^F4"^3" G2) | %12
"^3" (B"^5"d"^1" G2)"^2" G2 |"^3" (A"^5"c"^1" F2)"^2" F2 |"^3" (G"^5"B"^1" E2)"^3" E2 | %15
"^2" (E4"^3" F2) |!mf!"^3" (fa c2) c2 | (df B2) B2 |!<(! (Ac F2) E2!<)! | (E4 !fermata!F2) | %20
!mf! (fa c2) c2 | (df B2) B2 | (Ac F2) E2 | (E4 F2) |] %24
V:2
"^5" F,4 A,2 | B,4 B,2 | C4"^5" C,2 |"^1" F,2 C,2 F,,2 | C,6 | C,6 |"^5" C,2 E,2 F,2 x4/3 | %7
 C2 G,2 C,2 :|!f!"^4" ^F,6 | G,6 |"^2" C2 D2 D,2 |"^1" G,2 D,2 G,,2 |!mp!"^5" E,6 | F,6 | %14
"^2" B,2 C2 C,2 |"^1" F,2 C,2 F,,2 |"^3" A,6 | B,6 | C4 C,2 | !fermata!D,6 |"^3" A,6 | B,6 | %22
 C4 C,2 |"^1" F,2 C,2 F,,2 |] %24

